X: 305839
M: 2/4
L: 1/16
K: G
d3d ^cded | g3d B2Bc | d3d (^cded) | f3c .d.c.B.A |\
ga |\
bbbb b2ag | baaa a2fg | aaaa a2ba | aggg g2ga |\
bbbb b2ag | baaa a2fg | aaaa a2ba | g4 "^D.C."z2 |]
e2 |\
e^def gfga | b2b2B3b | c'3c'b3b | abag e3e |\
.e.^d.e.f .g.f.g.a | b2b2 a2a2 | g2g2 ^defg | e4 "^D.C."z2 |]


